X:1
T:Title
%%score { 1 | 2 }
L:1/8
M:4/4
K:Bb
V:1 treble nm="Grand Piano"
V:2 bass 
V:1
 z4 z2[Q:1/4=100] [B,D][CE] | [DF][DF][_D=E][_EG] [=DF]2 [FB][Fc] | [Fd][FB]GB F2 D[CE] | %3
 [DF][DF]GA BG[=EB][Ed] | [Fc]6 [B,D][CE] | [DF][DF][_D=E][_EG] [=DF]2 [FB][Fc] | %6
[M:3/4] [Fd][FB] GB F2 |[M:1/4] [DB][FA] |[M:4/4] [EG][Gc][Fd][Ee] dFcA |[M:3/4] [DB]6 | %10
[M:1/4] [DF]2 |[M:4/4] [Fd]3 [DA] [Dc][DB][F,B,D][B,EG] | %12
 [B,DF]2[K:bass] [B,_D=E]2 [F,C_E]2 z[K:treble] F | e3 c AGFE | D2 [EG]2 [DF]2 z E | %15
[M:3/4] D[DF] [FB]c d2 |[M:1/4] [DB][FA] |[M:17/16] [EG][GB][Gc][Gd][Ge]3/2[Ge][Gd][Gc] | %18
[M:4/4] [Bf]dBG F2 c2 |[M:3/4] [DB]6 |] %20
V:2
 z4 z2 [B,,F,][B,,F,] | [B,,B,][B,,B,][B,,B,][B,,B,] [B,,B,]2 [D,B,][C,A,] | %2
 [B,,B,][D,B,][E,B,E][G,B,E] [B,D]2 [B,,F,B,][B,,F,] | %3
 [B,,B,][B,,B,][K:treble][B,D][A,D^F] [G,DG][K:bass][G,B,D][C,G,][C,B,] | [F,A,]6 [B,,F,][B,,F,] | %5
 [B,,B,][B,,B,][B,,B,][B,,B,] [B,,B,]2 [D,B,][C,A,] |[M:3/4] [B,,B,][D,B,] [E,B,E][G,B,E] [B,D]2 | %7
[M:1/4] [B,,F,][D,B,] |[M:4/4] [E,B,][E,B,][D,=B,][C,C] [F,B,F][F,B,D][F,A,E][F,E] | %9
[M:3/4] [B,,F,]6 |[M:1/4] [B,,B,]2 |[M:4/4] [B,,B,]3 [B,,F,] [B,,F,][B,,F,]B,,B,, | %12
 F,,2 G,,2 A,,2 z [C,A,] | [F,A,F]3 [F,A,E] [F,CE][F,E][F,G,D][F,A,C] | %14
 [B,,B,]2 [B,,B,]2 [B,,B,]2 z [F,C] |[M:3/4] [B,,F,B,][B,,B,] [D,B,][K:treble][F,A,F] [B,F]2 | %16
[M:1/4][K:bass] [B,,B,][D,B,] |[M:17/16] [E,B,][E,B,][E,B,][D,=B,][C,C]3/2[C,C][D,B,][E,C] | %18
[M:4/4] [F,D][F,B,F][G,B,D][=E,B,_D] [F,B,=D]2 [F,A,E]2 |[M:3/4] [B,,B,]6 |] %20

